other/svg-icons/thick-arrow-up.svg

<svg width="15" height="15" viewBox="0 0 15 15" fill="none" xmlns="http://www.w3.org/2000/svg">
 <path d="m7.5 1c0.16148 0 0.31301 0.07798 0.40687 0.20938l5 7c0.1088 0.15241 0.1234 0.35288 0.0377 0.51941-0.0857 0.16654-0.2573 0.27121-0.4446 0.27121h-2.5v2.5c0 0.2761-0.22386 0.5-0.5 0.5h-4c-0.27614 0-0.5-0.2239-0.5-0.5v-2.5h-2.5c-0.18729 0-0.35888-0.10467-0.44458-0.27121-0.0857-0.16653-0.07115-0.367 0.03772-0.51941l5-7c0.09385-0.1314 0.24539-0.20938 0.40686-0.20938z" fill="currentColor" fill-rule="evenodd" clip-rule="evenodd" />
</svg>

<svg width="15" height="15" viewBox="0 0 15 15" fill="none" xmlns="http://www.w3.org/2000/svg"><path d="M7.5 1C7.66148 1 7.81301 1.07798 7.90687 1.20938L12.9069 8.20938C13.0157 8.36179 13.0303 8.56226 12.9446 8.72879C12.8589 8.89533 12.6873 9 12.5 9H10V11.5C10 11.7761 9.77614 12 9.5 12H5.5C5.22386 12 5 11.7761 5 11.5V9H2.5C2.31271 9 2.14112 8.89533 2.05542 8.72879C1.96972 8.56226 1.98427 8.36179 2.09314 8.20938L7.09314 1.20938C7.18699 1.07798 7.33853 1 7.5 1ZM3.4716 8H5.5C5.77614 8 6 8.22386 6 8.5V11H9V8.5C9 8.22386 9.22386 8 9.5 8H11.5284L7.5 2.36023L3.4716 8Z" fill="currentColor" fill-rule="evenodd" clip-rule="evenodd" style="--darkreader-inline-fill: currentColor;" data-darkreader-inline-fill=""></path></svg>
